images/button-buy.svg

<svg width="24" height="16" viewBox="0 0 24 16" fill="none" xmlns="http://www.w3.org/2000/svg">
<path d="M4.48828 2.68677H24.0009L22.0584 11.9247H9.68914L4.48828 2.68677Z" fill="white"/>
<path d="M20.1683 15.9999C21.1954 15.9999 22.028 15.1918 22.028 14.1949C22.028 13.198 21.1954 12.3899 20.1683 12.3899C19.1412 12.3899 18.3086 13.198 18.3086 14.1949C18.3086 15.1918 19.1412 15.9999 20.1683 15.9999Z" fill="white"/>
<path d="M11.4261 15.9999C12.4532 15.9999 13.2858 15.1918 13.2858 14.1949C13.2858 13.198 12.4532 12.3899 11.4261 12.3899C10.399 12.3899 9.56641 13.198 9.56641 14.1949C9.56641 15.1918 10.399 15.9999 11.4261 15.9999Z" fill="white"/>
<path d="M0.999842 0C0.447645 0 0 0.447644 0 0.999841C0 1.55204 0.447644 1.99968 0.999841 1.99968H2.8612C3.12125 1.99968 3.37108 2.10099 3.55768 2.28211L10.2601 8.78747C10.6479 9.16396 11.2648 9.16405 11.6528 8.78768L11.6736 8.76751C12.0785 8.37477 12.0786 7.72508 11.6739 7.33219L4.41142 0.282464C4.22481 0.101319 3.97497 0 3.7149 0H0.999842Z" fill="white"/>
</svg>

<svg width="24" height="16" fill="none" xmlns="http://www.w3.org/2000/svg"><path d="M4.488 2.687h19.513l-1.943 9.238H9.69l-5.2-9.238zM20.168 16c1.027 0 1.86-.808 1.86-1.805 0-.997-.833-1.805-1.86-1.805-1.027 0-1.86.808-1.86 1.805 0 .997.833 1.805 1.86 1.805zM11.426 16c1.027 0 1.86-.808 1.86-1.805 0-.997-.833-1.805-1.86-1.805-1.027 0-1.86.808-1.86 1.805 0 .997.833 1.805 1.86 1.805z" fill="#fff"/><path d="M1 0a1 1 0 000 2H2.86a1 1 0 01.697.282l6.702 6.505a1 1 0 001.393 0l.02-.02a1 1 0 000-1.435L4.412.282A1 1 0 003.715 0H1z" fill="#fff"/></svg>
